svg/bell_badge.svg

<svg xmlns="http://www.w3.org/2000/svg" viewBox="0 0 24 24"><path d="M21 6.5c0 1.93-1.57 3.5-3.5 3.5S14 8.43 14 6.5 15.57 3 17.5 3 21 4.57 21 6.5m-2 5.29c-.5.13-1 .21-1.5.21A5.51 5.51 0 0 1 12 6.5c0-1.47.58-2.8 1.5-3.79A1.93 1.93 0 0 0 12 2c-1.1 0-2 .9-2 2v.29C7.03 5.17 5 7.9 5 11v6l-2 2v1h18v-1l-2-2zM12 23c1.11 0 2-.89 2-2h-4a2 2 0 0 0 2 2"/></svg>

<svg xmlns="http://www.w3.org/2000/svg" id="mdi-bell-badge" viewBox="0 0 24 24"><path d="M21 6.5C21 8.43 19.43 10 17.5 10S14 8.43 14 6.5 15.57 3 17.5 3 21 4.57 21 6.5M19 11.79C18.5 11.92 18 12 17.5 12C14.47 12 12 9.53 12 6.5C12 5.03 12.58 3.7 13.5 2.71C13.15 2.28 12.61 2 12 2C10.9 2 10 2.9 10 4V4.29C7.03 5.17 5 7.9 5 11V17L3 19V20H21V19L19 17V11.79M12 23C13.11 23 14 22.11 14 21H10C10 22.11 10.9 23 12 23Z" /></svg>
